src/assets/images/toolbox/babel.svg

<svg
  width="26"
  height="32"
  viewBox="0 0 26 32"
  fill="transparent"
  xmlns="http://www.w3.org/2000/svg">
  <path
    fill="#FBC02D"
    d="M9.62282 2.31441C8.59739 3.06744 7.52508 3.75267 6.41258 4.36583V4.57155C6.52545 4.55147 6.63322 4.50873 6.72955 4.44583C6.86829 4.44583 6.95514 4.48812 6.95514 4.6264L7.18074 4.50069H7.29354V4.59897C6.61154 5.27813 5.85412 5.87487 5.03644 6.37725L5.16052 6.57268H5.04772L4.81197 6.49039C4.81197 6.56125 4.71497 6.60468 4.49501 6.61611V6.73039L4.74204 7.00811C4.62984 7.00536 4.5192 6.98093 4.41605 6.93611C4.11478 7.00066 3.83077 7.13024 3.58337 7.31602C3.33597 7.50179 3.13099 7.73941 2.98239 8.01267L3.10646 8.2081C3.31416 7.98121 3.55542 7.78843 3.82161 7.63668L3.84868 7.94182C3.73647 7.96426 3.62913 8.00683 3.53171 8.06753L3.79453 8.45839C4.27439 7.92332 4.82521 7.45831 5.43124 7.07668C5.73241 7.15896 5.88243 7.24468 5.88243 7.35439H6.10803C7.56047 6.22955 9.17811 5.34257 10.902 4.72583V4.93726C10.6008 5.38411 10.4068 5.60697 10.2985 5.62297C10.3136 5.76841 10.3657 5.9074 10.4496 6.0264C9.87975 7.91512 9.16312 9.75516 8.30646 11.5292C5.90143 17.5429 3.12718 23.3981 0 29.0606C0.0207456 29.1697 0.0629415 29.2735 0.124078 29.3657C0.501136 29.3039 0.862311 29.1667 1.18664 28.9623H1.31072V29.1737H1.51939L1.75176 29.0114C1.75176 29.0823 1.83297 29.1097 1.97735 29.0937V29.3052C1.94879 29.6539 1.82454 29.9876 1.61866 30.2686C1.28082 30.7639 1.03362 31.3167 0.88885 31.9006V32H1.09753C1.91334 31.0987 2.60367 30.0886 3.14933 28.9977C5.23045 28.4311 7.2517 27.659 9.18404 26.6926C10.3311 26.6604 11.4413 26.2753 12.3672 25.5886V25.4743L11.8427 25.6275H11.7186V25.5132C12.4667 25.452 13.1901 25.2132 13.8302 24.816C15.8279 23.2538 17.3269 22.1509 18.3557 21.4926C21.514 19.1475 22.9996 16.8858 22.8213 14.7372C22.2469 13.7675 21.5465 12.8804 20.7391 12.0995C20.712 11.7944 21.1903 11.3875 22.157 10.8275L24.8991 8.38181C25.6177 7.22914 25.9995 5.89379 26 4.5304L25.9425 4.1144C25.8297 2.87327 24.9498 1.86756 23.2692 1.1007C21.6199 0.269328 19.7819 -0.102249 17.9439 0.0241366C15.0869 0.410875 12.293 1.17946 9.63523 2.30984L9.62282 2.31441ZM12.0367 11.0938C12.2454 9.95095 12.4777 9.29381 12.7394 9.14067L15.027 3.94298C14.9999 3.62184 15.4782 3.37155 16.4877 3.20355L16.8193 3.17612L16.8464 3.48126C17.839 3.32812 18.4459 3.24241 18.6783 3.21498C20.483 3.06184 21.4328 3.42641 21.5174 4.3304H21.7261L21.6843 3.79898H21.9099C22.1339 3.88851 22.3308 4.03618 22.4806 4.22715C22.6305 4.41812 22.7282 4.64567 22.7638 4.88697C22.7483 5.29636 22.5812 5.68481 22.2957 5.97497C22.157 5.97497 22.0701 5.89268 22.06 5.66983H21.8344L21.7802 6.29954C20.8575 7.6961 20.201 8.40924 19.7826 8.43896C19.4103 8.95476 19.1761 9.22143 19.0798 9.23895C18.3621 9.9271 17.5671 10.5274 16.7111 11.0275C15.0777 11.5172 13.4871 12.143 11.9555 12.8984C11.8183 12.8322 11.6651 12.8076 11.5144 12.8275V12.6287C11.5271 12.0742 11.7153 11.5385 12.0514 11.1007L12.0367 11.0938ZM4.59202 7.15896V7.25725C4.47982 7.27969 4.37247 7.32226 4.27505 7.38296H4.16226V7.18639L4.59202 7.15896ZM11.2234 7.00354L11.2505 7.30868C11.1535 7.30868 11.0148 7.46182 10.8523 7.75553V7.54296C11.0055 7.39726 11.1106 7.20732 11.1535 6.99896L11.2234 7.00354ZM10.2082 9.17495L10.25 9.59324H10.1372L10.1045 9.17724L10.2082 9.17495ZM9.94542 9.93038C9.91835 10.2732 9.83262 10.4618 9.64425 10.4744H9.53145C9.63659 10.3165 9.69812 10.133 9.70968 9.94295L9.94542 9.93038ZM9.49423 11.0184V11.1167L9.30135 11.4527H9.09267V11.3601C9.13624 11.3655 9.18047 11.3603 9.22163 11.3448C9.2628 11.3294 9.29969 11.3041 9.32921 11.2712C9.35873 11.2382 9.38 11.1986 9.39125 11.1556C9.4025 11.1126 9.40339 11.0675 9.39384 11.0241H9.4931L9.49423 11.0184ZM9.02612 11.9967L8.97197 12.5132H8.85918L8.81744 11.9967H9.02612ZM11.44 13.5589V13.7544L11.0114 13.7966V13.6012L11.44 13.5589ZM9.39046 16.5498C11.4072 16.2164 13.3743 15.6258 15.2447 14.7921L15.8933 14.7372C16.4222 14.6411 16.9654 14.6612 17.486 14.7963C18.0065 14.9313 18.4924 15.1782 18.9106 15.5201L18.9524 15.9384C18.4572 17.3909 17.9056 18.2241 17.3145 18.4938L14.56 20.7132C13.5045 21.4822 12.3954 22.1727 11.2415 22.7795C9.34791 24.0007 7.29861 24.9543 5.15037 25.6137H5.02629C5.13909 25.2229 6.58291 22.208 9.39497 16.5372L9.39046 16.5498ZM12.3649 15.3635V15.4618L11.9239 15.5041V15.4058L12.3649 15.3635ZM5.50343 22.1063C5.36469 22.8183 5.20226 23.1829 5.06239 23.1943V23.096C5.05411 22.9064 5.09075 22.7175 5.16925 22.5451C5.24774 22.3727 5.3658 22.2219 5.51358 22.1052L5.50343 22.1063ZM8.25796 26.0435C10.5685 25.1177 12.7762 23.9474 14.8443 22.552V22.7475C14.8443 22.8298 14.5431 23.0903 13.9216 23.5578C12.7821 24.0535 11.7005 24.676 10.6967 25.4137C8.71141 26.1109 7.73345 26.5452 7.74924 26.7132C6.56333 27.1622 5.40375 27.6796 4.27618 28.2629C4.079 28.2569 3.8859 28.2045 3.71219 28.1097C3.6963 27.9292 3.7337 27.748 3.81966 27.5891C3.90562 27.4302 4.03625 27.3007 4.19497 27.2172C4.49567 27.1863 4.79914 27.2347 5.07592 27.3577C5.62414 27.111 6.19658 26.9236 6.78369 26.7989V26.5875L6.1351 26.6423C6.72943 26.2739 7.36284 25.9745 8.02334 25.7497L8.35497 25.7223V25.8286C7.80338 25.8709 7.48642 26.0572 7.41649 26.3452C7.41595 26.3734 7.42186 26.4013 7.43375 26.4268C7.44565 26.4523 7.46321 26.4747 7.48505 26.4922C7.5069 26.5097 7.53244 26.5218 7.55968 26.5276C7.58693 26.5334 7.61513 26.5328 7.64208 26.5257C7.86468 26.3978 8.06792 26.2381 8.24555 26.0515L8.25796 26.0435ZM4.87401 23.5063V23.6046C4.88055 23.6336 4.88046 23.6638 4.87374 23.6928C4.86702 23.7218 4.85386 23.7488 4.83525 23.7718C4.81664 23.7949 4.79308 23.8133 4.76637 23.8257C4.73966 23.8381 4.71051 23.8442 4.68113 23.8435V23.7452C4.67713 23.7182 4.67842 23.6906 4.68492 23.6641C4.69143 23.6376 4.70303 23.6126 4.71906 23.5907C4.73508 23.5687 4.75522 23.5502 4.77833 23.5361C4.80143 23.522 4.82705 23.5127 4.85371 23.5086L4.87401 23.5063ZM10.0278 24.9303C9.50348 25.0652 9.00492 25.2873 8.55237 25.5875H8.43957V25.376C8.95175 25.3415 9.43352 25.1174 9.79315 24.7463C9.82132 24.7422 9.85004 24.7439 9.87751 24.7516C9.90497 24.7592 9.93057 24.7725 9.95271 24.7906C9.97486 24.8088 9.99306 24.8314 10.0062 24.857C10.0193 24.8826 10.027 24.9107 10.0289 24.9395L10.0278 24.9303ZM4.66872 26.4515L5.00035 26.424V26.5383C4.88748 26.5584 4.77971 26.6011 4.68338 26.664H4.47584C4.48122 26.6123 4.50287 26.5637 4.53761 26.5254C4.57234 26.4872 4.61831 26.4612 4.66872 26.4515Z"
  />
</svg>

<svg xmlns="http://www.w3.org/2000/svg" width="26" height="32" fill="transparent" xmlns:v="https://vecta.io/nano">
  <path fill="#fbc02d"
    d="M9.623 2.314c-1.025.753-2.098 1.438-3.21 2.051v.206c.113-.02.221-.063.317-.126.139 0 .226.042.226.181l.226-.126h.113v.098c-.682.679-1.439 1.276-2.257 1.778l.124.195h-.113l-.236-.082c0 .071-.097.114-.317.126v.114l.247.278a.87.87 0 0 1-.326-.072 2.13 2.13 0 0 0-.833.38c-.247.186-.452.423-.601.697l.124.195a2.95 2.95 0 0 1 .715-.571l.027.305c-.112.022-.22.065-.317.126l.263.391c.48-.535 1.031-1 1.637-1.382.301.082.451.168.451.278h.226c1.452-1.125 3.07-2.012 4.794-2.629v.211c-.301.447-.495.67-.603.686.015.145.067.284.151.403-.57 1.889-1.286 3.729-2.143 5.503A156.38 156.38 0 0 1 0 29.061c.021.109.063.213.124.305a2.86 2.86 0 0 0 1.063-.403h.124v.211h.209l.232-.162c0 .071.081.098.226.082v.212a1.89 1.89 0 0 1-.359.963c-.338.495-.585 1.048-.73 1.632V32h.209a13.42 13.42 0 0 0 2.052-3.002 32.69 32.69 0 0 0 6.035-2.305c1.147-.032 2.257-.417 3.183-1.104v-.114l-.524.153h-.124v-.114c.748-.061 1.471-.3 2.112-.697l4.525-3.323c3.158-2.345 4.644-4.607 4.466-6.755a12.61 12.61 0 0 0-2.082-2.638c-.027-.305.451-.712 1.418-1.272l2.742-2.446C25.618 7.229 26 5.894 26 4.53l-.058-.416c-.113-1.241-.993-2.247-2.673-3.014C21.62.269 19.782-.102 17.944.024c-2.857.387-5.651 1.155-8.309 2.286l-.012.005zm2.414 8.779c.209-1.143.441-1.8.703-1.953l2.288-5.198c-.027-.321.451-.571 1.461-.739l.332-.027.027.305 1.832-.266c1.805-.153 2.755.211 2.839 1.115h.209l-.042-.531h.226c.224.09.421.237.571.428a1.4 1.4 0 0 1 .283.66 1.64 1.64 0 0 1-.468 1.088c-.139 0-.226-.082-.236-.305h-.226l-.054.63c-.923 1.397-1.579 2.11-1.998 2.139-.372.516-.606.782-.703.8-.718.688-1.513 1.288-2.369 1.789a30.65 30.65 0 0 0-4.756 1.871.78.78 0 0 0-.441-.071v-.199a2.61 2.61 0 0 1 .537-1.528l-.015-.007zM4.592 7.159v.098c-.112.022-.22.065-.317.126h-.113v-.197l.43-.027zm6.631-.155l.027.305c-.097 0-.236.153-.398.447v-.213a1.04 1.04 0 0 0 .301-.544l.07.005zm-1.015 2.171l.042.418h-.113l-.033-.416.104-.002zm-.263.755c-.027.343-.113.531-.301.544h-.113c.105-.158.167-.341.178-.531l.236-.013zm-.451 1.088v.098l-.193.336h-.209v-.093a.27.27 0 0 0 .129-.015c.041-.015.078-.041.108-.074a.28.28 0 0 0 .065-.247h.099l.001-.006zm-.468.978l-.054.516h-.113l-.042-.516h.209zm2.414 1.562v.196l-.429.042v-.195l.429-.042zM9.39 16.55a23.99 23.99 0 0 0 5.854-1.758l.649-.055c.529-.096 1.072-.076 1.593.059a3.73 3.73 0 0 1 1.425.724l.042.418c-.495 1.452-1.047 2.286-1.638 2.555l-2.754 2.219a26.89 26.89 0 0 1-3.318 2.066 24.51 24.51 0 0 1-6.091 2.834h-.124c.113-.391 1.557-3.406 4.369-9.077l-.005.013zm2.974-1.186v.098l-.441.042v-.098l.441-.042zm-6.861 6.743c-.139.712-.301 1.077-.441 1.088v-.098c-.008-.19.028-.378.107-.551s.197-.323.344-.44l-.01.001zm2.755 3.937a35.15 35.15 0 0 0 6.586-3.492v.195c0 .082-.301.343-.923.81-1.139.496-2.221 1.118-3.225 1.856-1.985.697-2.963 1.132-2.947 1.3-1.186.449-2.345.966-3.473 1.55-.197-.006-.39-.058-.564-.153-.016-.18.022-.362.107-.521a.91.91 0 0 1 .375-.372 1.73 1.73 0 0 1 .881.141 8.43 8.43 0 0 1 1.708-.559v-.211l-.649.055c.594-.368 1.228-.668 1.888-.893l.332-.027v.106c-.552.042-.869.229-.938.517-.001.028.005.056.017.082s.029.048.051.065.047.03.075.035.055.005.082-.002a2.67 2.67 0 0 0 .603-.474l.012-.008zm-3.384-2.537v.098c.007.029.006.059 0 .088s-.02.056-.038.079-.042.042-.069.054-.056.018-.085.018v-.098a.21.21 0 0 1 .004-.081c.007-.027.018-.052.034-.073s.036-.04.059-.055.049-.023.075-.027l.02-.002zm5.154 1.424a4.86 4.86 0 0 0-1.475.657H8.44v-.211a2.08 2.08 0 0 0 1.354-.63c.028-.004.057-.002.084.005s.053.021.075.039a.21.21 0 0 1 .053.066c.013.026.021.054.023.082l-.001-.009zm-5.359 1.521L5 26.424v.114c-.113.02-.221.063-.317.126h-.208c.005-.052.027-.1.062-.139s.081-.064.131-.074z" />
</svg>
